svg/fluentui-system-icons/ic_fluent_text_indent_increase_ltr_90_24_filled.svg

<svg width="24" height="24" viewBox="0 0 24 24" fill="none" xmlns="http://www.w3.org/2000/svg">
<path d="M8 9V17.5C8 18.0523 7.55228 18.5 7 18.5C6.48716 18.5 6.06449 18.114 6.00673 17.6166L6 17.5V9C6 8.44772 6.44772 8 7 8C7.51284 8 7.93551 8.38604 7.99327 8.88338L8 9ZM14.7071 2.29289C15.0676 2.65338 15.0953 3.22061 14.7903 3.6129L14.7071 3.70711L12.7071 5.70711C12.3466 6.06759 11.7794 6.09532 11.3871 5.7903L11.2929 5.70711L9.29289 3.70711C8.90237 3.31658 8.90237 2.68342 9.29289 2.29289C9.65338 1.93241 10.2206 1.90468 10.6129 2.2097L10.7071 2.29289L12 3.58579L13.2929 2.29289C13.6834 1.90237 14.3166 1.90237 14.7071 2.29289ZM13 8.99991L13.0011 20.4999C13.0011 21.0522 12.5535 21.5 12.0012 21.5C11.4883 21.5 11.0656 21.114 11.0078 20.6167L11.0011 20.5001L11 9.00009C10.9999 8.44781 11.4476 8 11.9999 8C12.5127 8 12.9354 8.38596 12.9933 8.88329L13 8.99991ZM18 9V17.5C18 18.0523 17.5523 18.5 17 18.5C16.4872 18.5 16.0645 18.114 16.0067 17.6166L16 17.5V9C16 8.44772 16.4477 8 17 8C17.5128 8 17.9355 8.38604 17.9933 8.88338L18 9Z" fill="#212121"/>
</svg>

<svg xmlns="http://www.w3.org/2000/svg" width="24" height="24"><path d="M8 9v8.5a1 1 0 0 1-1.993.117L6 17.5V9a1 1 0 0 1 1.993-.117L8 9Zm6.707-6.707a1 1 0 0 1 .083 1.32l-.083.094-2 2a1 1 0 0 1-1.32.083l-.094-.083-2-2a1 1 0 0 1 1.32-1.497l.094.083L12 3.586l1.293-1.293a1 1 0 0 1 1.414 0ZM13 9l.001 11.5a1 1 0 0 1-1.993.117L11 20.5V9a1 1 0 0 1 1.993-.117L13 9Zm5 0v8.5a1 1 0 0 1-1.993.117L16 17.5V9a1 1 0 0 1 1.993-.117L18 9Z"/></svg>
